X: 31
M: 2/4
L: 1/16
K: D
|:\
dcde d2f2 | e2f2g2f2 |\
e2d2c2d2 | edcB A2G2 |\
f2d2A2c2 | d4 D4 :|
|:\
f2d2 cdec | d4 D4 :|
|:\
b2GA B2G2 | a2FG A2F2 |\
E2ef gfed | cdec A2G2 |\
f2d2 cdec | d4 D4 :|


